gama.ui.shared/icons_svg/dark/navigator/file.refresh.svg

<svg height="25" viewBox="-814.997 -3555.419 25 25" width="25" xmlns="http://www.w3.org/2000/svg"><g fill="none"><path d="m-810.657-3554.9187h16.32c2.1208 0 3.84 1.7192 3.84 3.84v16.32c0 2.1207-1.7192 3.84-3.84 3.84h-16.32c-2.1207 0-3.84-1.7193-3.84-3.84v-16.32c0-2.1208 1.7193-3.84 3.84-3.84z" fill="#666"/><path d="m-810.657-3554.9187h16.32c2.1208 0 3.84 1.7192 3.84 3.84v16.32c0 2.1207-1.7192 3.84-3.84 3.84h-16.32c-2.1207 0-3.84-1.7193-3.84-3.84v-16.32c0-2.1208 1.7193-3.84 3.84-3.84z" stroke="#fff" stroke-linecap="round" stroke-linejoin="round" stroke-width=".25"/><path d="m-804.9033-3545.5854h-3.3714c-.7364 0-1.3334.597-1.3334 1.3334v5.3333c0 .7364.597 1.3333 1.3334 1.3333h11.5555c.7364 0 1.3333-.5969 1.3333-1.3333v-5.3333c0-.7364-.5969-1.3334-1.3333-1.3334h-3.5555c-.2455 0-.4445-.199-.4445-.4446 0-.2453.199-.4443.4445-.4443h3.5555c1.2273 0 2.2222.995 2.2222 2.2223v5.3333c0 1.2273-.9949 2.2222-2.2222 2.2222h-11.5555c-1.2273 0-2.2223-.9949-2.2223-2.2222v-5.3333c0-1.2273.995-2.2223 2.2223-2.2223h3.3714l-1.9079-1.9077c-.1736-.1738-.1736-.455 0-.6287.1735-.1736.4549-.1736.6285 0l2.6667 2.6667c.1735.1735.1735.455 0 .6285l-2.6667 2.6665c-.1736.1737-.455.1737-.6285 0-.1736-.1734-.1736-.455 0-.6284z" fill="#c0e0ff"/></g></svg>

<?xml version="1.0" encoding="UTF-8" standalone="no"?>
<!DOCTYPE svg PUBLIC "-//W3C//DTD SVG 1.1//EN" "http://www.w3.org/Graphics/SVG/1.1/DTD/svg11.dtd">
<svg xmlns="http://www.w3.org/2000/svg" xmlns:xl="http://www.w3.org/1999/xlink" version="1.1" xmlns:dc="http://purl.org/dc/elements/1.1/" viewBox="-814.997 -3555.4187 25 25" width="25" height="25">
  <defs/>
  <g id="SOURCES" stroke-opacity="1" fill="none" stroke="none" fill-opacity="1" stroke-dasharray="none">
    <title>SOURCES</title>
    <g id="SOURCES_Dark">
      <title>Dark</title>
      <g id="Graphic_11684">
        <title>views/view.other</title>
        <path d="M -810.657 -3554.9187 L -794.337 -3554.9187 C -792.2162 -3554.9187 -790.497 -3553.1995 -790.497 -3551.0787 L -790.497 -3534.7587 C -790.497 -3532.638 -792.2162 -3530.9187 -794.337 -3530.9187 L -810.657 -3530.9187 C -812.7777 -3530.9187 -814.497 -3532.638 -814.497 -3534.7587 L -814.497 -3551.0787 C -814.497 -3553.1995 -812.7777 -3554.9187 -810.657 -3554.9187 Z" fill="#666"/>
        <path d="M -810.657 -3554.9187 L -794.337 -3554.9187 C -792.2162 -3554.9187 -790.497 -3553.1995 -790.497 -3551.0787 L -790.497 -3534.7587 C -790.497 -3532.638 -792.2162 -3530.9187 -794.337 -3530.9187 L -810.657 -3530.9187 C -812.7777 -3530.9187 -814.497 -3532.638 -814.497 -3534.7587 L -814.497 -3551.0787 C -814.497 -3553.1995 -812.7777 -3554.9187 -810.657 -3554.9187 Z" stroke="white" stroke-linecap="round" stroke-linejoin="round" stroke-width=".25"/>
      </g>
      <g id="Graphic_11683">
        <path d="M -804.9033 -3545.5854 L -808.2747 -3545.5854 C -809.0111 -3545.5854 -809.6081 -3544.9884 -809.6081 -3544.252 L -809.6081 -3538.9187 C -809.6081 -3538.1823 -809.0111 -3537.5854 -808.2747 -3537.5854 L -796.7192 -3537.5854 C -795.9828 -3537.5854 -795.3859 -3538.1823 -795.3859 -3538.9187 L -795.3859 -3544.252 C -795.3859 -3544.9884 -795.9828 -3545.5854 -796.7192 -3545.5854 L -800.2747 -3545.5854 C -800.5202 -3545.5854 -800.7192 -3545.7844 -800.7192 -3546.03 C -800.7192 -3546.2753 -800.5202 -3546.4743 -800.2747 -3546.4743 L -796.7192 -3546.4743 C -795.4919 -3546.4743 -794.497 -3545.4793 -794.497 -3544.252 L -794.497 -3538.9187 C -794.497 -3537.6914 -795.4919 -3536.6965 -796.7192 -3536.6965 L -808.2747 -3536.6965 C -809.502 -3536.6965 -810.497 -3537.6914 -810.497 -3538.9187 L -810.497 -3544.252 C -810.497 -3545.4793 -809.502 -3546.4743 -808.2747 -3546.4743 L -804.9033 -3546.4743 L -806.8112 -3548.382 C -806.9848 -3548.5558 -806.9848 -3548.837 -806.8112 -3549.0107 C -806.6377 -3549.1843 -806.3563 -3549.1843 -806.1827 -3549.0107 L -803.516 -3546.344 C -803.3425 -3546.1705 -803.3425 -3545.889 -803.516 -3545.7155 L -806.1827 -3543.049 C -806.3563 -3542.8753 -806.6377 -3542.8753 -806.8112 -3543.049 C -806.9848 -3543.2224 -806.9848 -3543.504 -806.8112 -3543.6774 Z" fill="#c0e0ff"/>
      </g>
    </g>
  </g>
</svg>
